X: 21391
T: Kerry, The
R: polka
M: 2/4
K: Gmajor
|:BD ED|BD ED|G2 A>B|AG ED|BD ED|BD ED|G2 A>B|AG G>A:|
|:B2 Bc/B/|AG ED|G2 A>B|AG ED|B2 Bc/B/|AG ED|G2 A>B|AG G>E:|
|:D2 DE|G2 G>A|B2 Bc/B/|AG EG|D2 DE|G2 G>A|Bd AB/A/|G2 G2:|

